X:114
T: SCHOEN HANNCHEN GING AM UFER
N: E0708B
O: Europa, Mitteleuropa, Deutschland, Hessen, Lahn - Kreis; Dill -
R: Liebes - Lied, Leid, Klage, Tod
M: 2/4
L: 1/16
K: F
C2 | F2F2F2F2 | A4G2
F2 | E2G2B3A | G4z2
G2 | B2B2B2B2 | d4c2
B2 | c2A2A2A2 | A4z2

